src/topics/icons/hibernate.svg

<svg height="267" preserveAspectRatio="xMidYMid" viewBox="0 0 256 267" width="256" xmlns="http://www.w3.org/2000/svg"><path d="m153.6714 178.9332-.932 2.757 49.137 83.342 2.781 1.968 51.342-88.78-51.342-89.137z" fill="#59666c"/><path d="m50.2731.3039-50.273 88.78 52.234 89.849 49.738-89.849-.134-3.631-49.273-83.343z" fill="#59666c"/><g fill="#bcae79"><path d="m50.2731.3039 51.699 88.78h102.685l-52.056-88.78z"/><path d="m52.2342 178.9332 50.63 88.067h101.793l-50.986-88.067z"/></g></svg>

<?xml version="1.0" encoding="UTF-8" standalone="no"?>
<svg width="256px" height="267px" viewBox="0 0 256 267" version="1.1" xmlns="http://www.w3.org/2000/svg" xmlns:xlink="http://www.w3.org/1999/xlink" preserveAspectRatio="xMidYMid">
	<g>
		<path d="M153.6714,178.9332 L152.7394,181.6902 L201.8764,265.0322 L204.6574,267.0002 L255.9994,178.2202 L204.6574,89.0832 L153.6714,178.9332 Z" fill="#59666C"></path>
		<path d="M50.2731,0.3039 L0.0001,89.0839 L52.2341,178.9329 L101.9721,89.0839 L101.8381,85.4529 L52.5651,2.1099 L50.2731,0.3039 Z" fill="#59666C"></path>
		<path d="M50.2731,0.3039 L101.9721,89.0839 L204.6571,89.0839 L152.6011,0.3039 L50.2731,0.3039 Z" fill="#BCAE79"></path>
		<path d="M52.2342,178.9332 L102.8642,267.0002 L204.6572,267.0002 L153.6712,178.9332 L52.2342,178.9332 Z" fill="#BCAE79"></path>
	</g>
</svg>
